X:139
T:Colonel Wemyss
R:Reel
B:The Athole Collection
M:C|
L:1/8
K:F
C|F2 AF ABcf|AFcF EGGA|F2 AF ABcA|dfeg ~fFF:|
g|a/g/f/e/ fc ABcf|AFcF EGGg|fefc ABcA|dfeg fFFg|
afge fdcB|AFcF EGGB|AfcF Bcde|fcdB AFF||

